Origami/22x22/apps/scout-app.svg

<svg width="22" height="22" version="1.1" viewBox="0 0 22 22" xmlns="http://www.w3.org/2000/svg">
 <path d="m11 2.999255c-0.511985 0.00282-1.003555 0.054877-1.506836 0.1552735-3.7107945 0.7214154-6.7273032 3.1028684-5.8359375 6.9814455 0.4384165 1.90826 1.5047125 3.133688 1.9140625 4.351562 1.085141 3.226976 0.969144 4.884342 3.049805 5.600586 0.836898 0.286068 1.512945 0.42331 2.378906 0.411133 0.865962 0.01218 1.542009-0.125065 2.378906-0.411133 2.080661-0.716244 1.964664-2.37361 3.049805-5.600586 0.40935-1.217874 1.475646-2.443302 1.914063-4.351562 0.891365-3.8785771-2.125143-6.2600301-5.835938-6.9814455-0.50328-0.100396-0.99485-0.1524485-1.506836-0.1552735z" style="opacity:.2"/>
 <path d="m11 2.0002248c-0.511985 0.00282-1.003555 0.054878-1.506836 0.1552735-3.7107945 0.7214153-6.3275297 3.1028685-5.436164 6.981445 0.4384165 1.9082597 1.104939 3.6334637 1.514289 4.8513367 1.085141 3.226976 0.969144 4.884342 3.049805 5.600586 0.836898 0.286068 1.512945 0.423311 2.378906 0.411133 0.865962 0.01217 1.542009-0.125065 2.378906-0.411133 2.080661-0.716244 1.964664-2.37361 3.049805-5.600586 0.40935-1.217873 0.825873-2.943077 1.264289-4.8513367 0.891366-3.8785765-1.475369-6.2600297-5.186164-6.981445-0.50328-0.100396-0.99485-0.1524485-1.506836-0.1552735z" style="fill:#d7cec7"/>
 <path d="m12.487305 2.1525686 0.01953 0.00293c3.478871 0.6763265 6.347576 2.8113602 5.958009 6.2714842-0.02671 0.2309729-0.06674 0.4662899-0.12207 0.7070305-0.0041 0.01803-0.0095 0.03384-0.01367 0.05176-0.439745 1.8549807-1.465151 3.5638947-1.881836 4.7556337-3.447268 0.058592-4.447268-4.1593677-4.447268-7.6794632-0.0054-1.345551-0.100436-2.886667 0.487305-4.1093752z" style="fill:#de8c4a"/>
 <path d="m 9.512696,2.1525686 -0.01953,0.00293 C 6.014294,2.8318251 3.1455894,4.9668588 3.5351562,8.4269828 c 0.026715,0.2309729 0.066744,0.4662899 0.1220703,0.7070305 0.00414,0.01803 0.00946,0.03384 0.013672,0.05176 0.439745,1.8549807 1.4651505,3.5638947 1.881836,4.7556337 C 9,13.999999 10,9.7820393 10,6.2619438 10.0054,4.9163928 10.100436,3.3752768 9.512696,2.1525686 Z" style="fill:#de8c4a"/>
 <path d="m10.632813 14.999999c-0.349612 0-0.632813 0.338242-0.632813 0.75586 0 0.421917 0.651376 1.24414 1 1.24414s1-0.822223 1-1.24414c0-0.417618-0.283201-0.75586-0.632812-0.75586h-0.367188-0.367187z" style="fill:#3f3f3f"/>
 <circle cx="7.5" cy="10" r="1.5" style="opacity:.2"/>
 <circle cx="7.5" cy="9.5" r="1.5" style="fill:#3f3f3f"/>
 <circle cx="14.5" cy="10" r="1.5" style="opacity:.2"/>
 <circle cx="7" cy="9.5" r=".5" style="fill:#ffffff"/>
 <path d="m12 18.999999c0 0.552285-0.447715 1-1 1-0.552284 0-1-0.447715-1-1 0-0.119005 0.02079-0.233155 0.05893-0.339017 0.13887-0.385425 0.487361-0.170687 0.92064-0.170687 0.432822 0 0.821849-0.21532 0.961058 0.169466 0.038424 0.106205 0.059372 0.220775 0.059372 0.340238z" style="fill:#d86f6f"/>
 <path d="m8.25 17.749999s0.919206 0.845593 1.5 0.999831c0.360193 0.09565 1.25-0.5 1.25-0.5s0.889807 0.595654 1.25 0.5c0.580794-0.154238 1.5-0.999831 1.5-0.999831" style="fill:none;stroke-linecap:round;stroke-linejoin:round;stroke-width:.5;stroke:#79431b"/>
 <path d="m11 1.9999993c-0.50464 0.00278-0.990592 0.054756-1.486328 0.1523438l-0.013672 0.0019531c-0.0027 5.264e-4 -0.0052 0.00142-0.0078 0.00195-0.01977 0.00384-0.03693 0.011688-0.05664 0.015625-3.3236989 0.66363-6.0681351 2.6641976-5.9218881 5.8828156 0.1454423-2.9259897 2.7737666-4.7542425 5.9218751-5.3828125 0.01971-0.00394 0.03687-0.011785 0.05664-0.015625 0.0026-5.3e-4 0.0051-0.00143 0.0078-0.00195l0.01367-0.00195c0.495751-0.097594 0.981703-0.14957 1.486343-0.15235 0.511336 0.00282 1.003305 0.056098 1.505859 0.15625h2e-3c3.175269 0.6178231 5.834599 2.4553919 5.978516 5.4023438 0.149706-3.240129-2.627361-5.2502889-5.978563-5.9023438h-2e-3c-0.502564-0.1001461-0.994476-0.1534286-1.505812-0.15625z" style="fill:#ffffff;opacity:.2"/>
 <path d="m7.9945806 4.3770597s1.8767694-2.0042627 0.502016-2.5747106c-1.5399623-0.6390005-5.6550617-0.2353749-7.0903682 0.9299685-0.5478809 0.4328986-0.4204403 0.8084108-0.3065753 1.3213211 0.394035 1.7743005 1.4156431 6.2998113 1.6160431 6.4426643 0.2494529 0.17782 5.2788844-6.1192433 5.2788844-6.1192433z" style="opacity:.2"/>
 <path d="m7.9945806 3.8770609s1.8767694-2.0042627 0.502016-2.5747106c-1.5399623-0.6390005-5.6550617-0.2353749-7.0903682 0.9299685-0.5478809 0.4328986-0.4204403 0.8084108-0.3065753 1.3213211 0.394035 1.7743005 1.4156431 6.2998104 1.6160431 6.4426634 0.2494529 0.1778197 5.2788844-6.1192424 5.2788844-6.1192424z" style="fill:#86522b"/>
 <path d="m14.005419 4.3770597s-1.876769-2.0042627-0.502016-2.5747106c1.539963-0.6390005 5.655062-0.2353749 7.090369 0.9299685 0.547881 0.4328986 0.42044 0.8084108 0.306575 1.3213211-0.394034 1.7743005-1.415643 6.2998113-1.616043 6.4426643-0.249453 0.17782-5.278885-6.1192433-5.278885-6.1192433z" style="opacity:.2"/>
 <path d="m14.005419 3.8770609s-1.876769-2.0042627-0.502016-2.5747106c1.539963-0.6390005 5.655062-0.2353749 7.090369 0.9299685 0.547881 0.4328986 0.42044 0.8084108 0.306575 1.3213211-0.394034 1.7743005-1.415643 6.2998104-1.616043 6.4426634-0.249453 0.1778197-5.278885-6.1192424-5.278885-6.1192424z" style="fill:#86522b"/>
 <circle cx="14.5" cy="9.5" r="1.5" style="fill:#3f3f3f"/>
 <circle cx="14" cy="9.5" r=".5" style="fill:#ffffff"/>
 <path d="m5.9550781 1.0078118c-1.7077128 0.0646665-3.6517615 0.4962697-4.5488281 1.2246094-0.4376257 0.3457824-0.4402185 0.6574747-0.3671875 1.0292969 0.0430856-0.1756259 0.1375473-0.3478507 0.3671875-0.5292969 1.4353065-1.1653434 5.5498814-1.568688 7.0898438-0.9296875 0.2547324 0.1057001 0.3968527 0.2610756 0.4609374 0.4433594 0.0816898-0.3891843 0.0053034-0.7498948-0.4609374-0.9433594-0.5774859-0.2396252-1.516388-0.3337218-2.5410157-0.2949219z" style="fill:#ffffff;opacity:.1"/>
 <path d="m16.044922 1.0078118c-1.024628-0.0388-1.96353 0.055297-2.541016 0.2949219-0.46624 0.1934646-0.542627 0.5541751-0.460937 0.9433594 0.06408-0.1822838 0.206205-0.3376593 0.460937-0.4433594 1.539963-0.6390005 5.654537-0.2356559 7.089844 0.9296875 0.22964 0.1814462 0.324102 0.353671 0.367188 0.5292969 0.073031-0.3718222 0.070438-0.6835145-0.367188-1.0292969-0.897067-0.7283396-2.841115-1.1599429-4.548828-1.2246094z" style="fill:#ffffff;opacity:.1"/>
</svg>

<svg xmlns="http://www.w3.org/2000/svg" width="22" height="22" version="1.1" viewBox="0 0 22 22">
 <path style="opacity:0.2" d="M 11,2.999255 C 10.488015,3.002075 9.996445,3.054132 9.493164,3.1545285 5.7823695,3.8759439 2.7658608,6.2573969 3.6572265,10.135974 c 0.4384165,1.90826 1.5047125,3.133688 1.9140625,4.351562 1.085141,3.226976 0.969144,4.884342 3.049805,5.600586 0.836898,0.286068 1.512945,0.42331 2.378906,0.411133 0.865962,0.01218 1.542009,-0.125065 2.378906,-0.411133 2.080661,-0.716244 1.964664,-2.37361 3.049805,-5.600586 0.40935,-1.217874 1.475646,-2.443302 1.914063,-4.351562 C 19.234139,6.2573969 16.217631,3.8759439 12.506836,3.1545285 12.003556,3.0541325 11.511986,3.00208 11,2.999255 Z"/>
 <path style="fill:#d7cec7" d="M 11,2.0002248 C 10.488015,2.0030448 9.996445,2.0551028 9.493164,2.1554983 5.7823695,2.8769136 3.1656343,5.2583668 4.057,9.1369433 4.4954165,11.045203 5.161939,12.770407 5.571289,13.98828 c 1.085141,3.226976 0.969144,4.884342 3.049805,5.600586 0.836898,0.286068 1.512945,0.423311 2.378906,0.411133 0.865962,0.01217 1.542009,-0.125065 2.378906,-0.411133 2.080661,-0.716244 1.964664,-2.37361 3.049805,-5.600586 C 16.838061,12.770407 17.254584,11.045203 17.693,9.1369433 18.584366,5.2583668 16.217631,2.8769136 12.506836,2.1554983 12.003556,2.0551023 11.511986,2.0030498 11,2.0002248 Z"/>
 <path style="fill:#de8c4a" d="m 12.487305,2.1525686 0.01953,0.00293 c 3.478871,0.6763265 6.347576,2.8113602 5.958009,6.2714842 -0.02671,0.2309729 -0.06674,0.4662899 -0.12207,0.7070305 -0.0041,0.01803 -0.0095,0.03384 -0.01367,0.05176 C 17.889359,11.040754 16.863953,12.749668 16.447268,13.941407 13,13.999999 12,9.7820393 12,6.2619438 11.9946,4.9163928 11.899564,3.3752768 12.487305,2.1525686 Z"/>
 <path style="fill:#de8c4a" d="m 9.512696,2.1525686 -0.01953,0.00293 C 6.014294,2.8318251 3.1455894,4.9668588 3.5351562,8.4269828 c 0.026715,0.2309729 0.066744,0.4662899 0.1220703,0.7070305 0.00414,0.01803 0.00946,0.03384 0.013672,0.05176 0.439745,1.8549807 1.4651505,3.5638947 1.881836,4.7556337 C 9,13.999999 10,9.7820393 10,6.2619438 10.0054,4.9163928 10.100436,3.3752768 9.512696,2.1525686 Z"/>
 <path style="fill:#3f3f3f" d="M 10.632813,14.999999 C 10.283201,14.999999 10,15.338241 10,15.755859 c 0,0.421917 0.651376,1.24414 1,1.24414 0.348624,0 1,-0.822223 1,-1.24414 0,-0.417618 -0.283201,-0.75586 -0.632812,-0.75586 l -0.367188,0 -0.367187,0 z"/>
 <circle style="opacity:0.2" cx="7.5" cy="10" r="1.5"/>
 <circle style="fill:#3f3f3f" cx="7.5" cy="9.5" r="1.5"/>
 <circle style="opacity:0.2" cx="14.5" cy="10" r="1.5"/>
 <circle style="fill:#ffffff" cx="7" cy="9.5" r=".5"/>
 <path style="fill:#d86f6f" d="m 12,18.999999 c 0,0.552285 -0.447715,1 -1,1 -0.552284,0 -1,-0.447715 -1,-1 0,-0.119005 0.02079,-0.233155 0.05893,-0.339017 0.13887,-0.385425 0.487361,-0.170687 0.92064,-0.170687 0.432822,0 0.821849,-0.21532 0.961058,0.169466 C 11.979052,18.765966 12,18.880536 12,18.999999 Z"/>
 <path style="fill:none;stroke:#79431b;stroke-width:0.5;stroke-linecap:round;stroke-linejoin:round" d="m 8.25,17.749999 c 0,0 0.919206,0.845593 1.5,0.999831 0.360193,0.09565 1.25,-0.5 1.25,-0.5 0,0 0.889807,0.595654 1.25,0.5 0.580794,-0.154238 1.5,-0.999831 1.5,-0.999831"/>
 <path style="opacity:0.2;fill:#ffffff" d="m 11,1.9999993 c -0.50464,0.00278 -0.990592,0.054756 -1.486328,0.1523438 L 9.5,2.1542962 c -0.0027,5.264e-4 -0.0052,0.00142 -0.0078,0.00195 -0.01977,0.00384 -0.03693,0.011688 -0.05664,0.015625 C 6.1118611,2.8355012 3.3674249,4.8360688 3.5136719,8.0546868 3.6591142,5.1286971 6.2874385,3.3004443 9.435547,2.6718743 c 0.01971,-0.00394 0.03687,-0.011785 0.05664,-0.015625 0.0026,-5.3e-4 0.0051,-0.00143 0.0078,-0.00195 l 0.01367,-0.00195 C 10.009408,2.5547553 10.49536,2.5027793 11,2.4999993 c 0.511336,0.00282 1.003305,0.056098 1.505859,0.15625 l 0.002,0 c 3.175269,0.6178231 5.834599,2.4553919 5.978516,5.4023438 0.149706,-3.240129 -2.627361,-5.2502889 -5.978563,-5.9023438 l -0.002,0 C 12.003248,2.0561032 11.511336,2.0028207 11,1.9999993 Z"/>
 <path style="opacity:0.2" d="m 7.9945806,4.3770597 c 0,0 1.8767694,-2.0042627 0.502016,-2.5747106 C 6.9566343,1.1633486 2.8415349,1.5669742 1.4062284,2.7323176 0.8583475,3.1652162 0.9857881,3.5407284 1.0996531,4.0536387 1.4936881,5.8279392 2.5152962,10.35345 2.7156962,10.496303 2.9651491,10.674123 7.9945806,4.3770597 7.9945806,4.3770597 Z"/>
 <path style="fill:#86522b" d="m 7.9945806,3.8770609 c 0,0 1.8767694,-2.0042627 0.502016,-2.5747106 C 6.9566343,0.6633498 2.8415349,1.0669754 1.4062284,2.2323188 0.8583475,2.6652174 0.9857881,3.0407296 1.0996531,3.5536399 1.4936881,5.3279404 2.5152962,9.8534503 2.7156962,9.9963033 2.9651491,10.174123 7.9945806,3.8770609 7.9945806,3.8770609 Z"/>
 <path style="opacity:0.2" d="m 14.005419,4.3770597 c 0,0 -1.876769,-2.0042627 -0.502016,-2.5747106 1.539963,-0.6390005 5.655062,-0.2353749 7.090369,0.9299685 0.547881,0.4328986 0.42044,0.8084108 0.306575,1.3213211 -0.394034,1.7743005 -1.415643,6.2998113 -1.616043,6.4426643 -0.249453,0.17782 -5.278885,-6.1192433 -5.278885,-6.1192433 z"/>
 <path style="fill:#86522b" d="m 14.005419,3.8770609 c 0,0 -1.876769,-2.0042627 -0.502016,-2.5747106 1.539963,-0.6390005 5.655062,-0.2353749 7.090369,0.9299685 0.547881,0.4328986 0.42044,0.8084108 0.306575,1.3213211 -0.394034,1.7743005 -1.415643,6.2998104 -1.616043,6.4426634 -0.249453,0.1778197 -5.278885,-6.1192424 -5.278885,-6.1192424 z"/>
 <circle style="fill:#3f3f3f" cx="14.5" cy="9.5" r="1.5"/>
 <circle style="fill:#ffffff" cx="14" cy="9.5" r=".5"/>
 <path style="opacity:0.1;fill:#ffffff" d="M 5.9550781,1.0078118 C 4.2473653,1.0724783 2.3033166,1.5040815 1.40625,2.2324212 0.9686243,2.5782036 0.9660315,2.8898959 1.0390625,3.2617181 1.0821481,3.0860922 1.1766098,2.9138674 1.40625,2.7324212 2.8415565,1.5670778 6.9561314,1.1637332 8.4960938,1.8027337 8.7508262,1.9084338 8.8929465,2.0638093 8.9570312,2.2460931 9.038721,1.8569088 8.9623346,1.4961983 8.4960938,1.3027337 7.9186079,1.0631085 6.9797058,0.9690119 5.9550781,1.0078118 Z"/>
 <path style="opacity:0.1;fill:#ffffff" d="m 16.044922,1.0078118 c -1.024628,-0.0388 -1.96353,0.055297 -2.541016,0.2949219 -0.46624,0.1934646 -0.542627,0.5541751 -0.460937,0.9433594 0.06408,-0.1822838 0.206205,-0.3376593 0.460937,-0.4433594 1.539963,-0.6390005 5.654537,-0.2356559 7.089844,0.9296875 0.22964,0.1814462 0.324102,0.353671 0.367188,0.5292969 C 21.033969,2.8898959 21.031376,2.5782036 20.59375,2.2324212 19.696683,1.5040816 17.752635,1.0724783 16.044922,1.0078118 Z"/>
</svg>
